X: 25
T:Inte srja vi...
M:3/4
L:1/16
C:Trad. Swedish
S:Garmarna
K:G
|:A3B cdcB AGAB|cBcd e4c4|cdef g2ge fdfa|abag e8:|
:c2e2 g2ga f2fg|abag e2e2 c2A2|c2e2 g2ga f2fg|abag e2e2 c2A2|
c2ec d2B2 cBAG|A4 A8:|
